X: 25
T: The Man Who Ruined it All
C: Armand Aromin
H: 3/10/05
M: 6/8
L: 1/8
R: Jig
K: Emin
Bef || g3 f3 | edB BAB | e2 B efg | f3 Bef |
g3 f3 | edB BAB | efg fed |1 e3 Bef :|2 e3 e2 B ||
e2 B efg | f3 fga | g2 d gab | agf e2 B |
e2 B efg | f3 fef | gag fed | e3 e2 B :|
eBB fBB | gBB fBB | eBB fBB | gfe d2 B |
eBB fBB | gBB fBB | efg fed |1 e3 e2 B :|2 e3 Bef |]
